svgs/thin/registered.svg

<svg xmlns="http://www.w3.org/2000/svg" viewBox="0 0 512 512"><!--! Font Awesome Pro 6.0.0-alpha3 by @fontawesome - https://fontawesome.com License - https://fontawesome.com/license (Commercial License) --><path d="M360 208c0-44.11-35.88-80-80-80l-96 .0176c-13.22 0-24 10.77-24 24V376C160 380.4 163.6 384 168 384s8-3.594 8-8V288h104c1.193 0 2.305-.2988 3.484-.3516l61.86 92.79c1.611 2.434 6.311 5.371 11.09 2.219c3.688-2.438 4.656-7.406 2.219-11.09L300.9 284.9C334.8 275.6 360 244.8 360 208zM280 272H176V152c0-4.406 3.594-8 8-8h96c35.28 0 64 28.7 64 64S315.3 272 280 272zM256 0C114.6 0 0 114.6 0 256s114.6 256 256 256s256-114.6 256-256S397.4 0 256 0zM256 496c-132.3 0-240-107.7-240-240S123.7 16 256 16s240 107.7 240 240S388.3 496 256 496z"/></svg>

<svg xmlns="http://www.w3.org/2000/svg" viewBox="0 0 512 512"><!-- Font Awesome Pro 6.0.0-alpha2 by @fontawesome - https://fontawesome.com License - https://fontawesome.com/license (Commercial License) --><path d="M256 16C123.451 16 16 123.451 16 256S123.451 496 256 496S496 388.549 496 256S388.549 16 256 16ZM256 480C132.486 480 32 379.514 32 256S132.486 32 256 32S480 132.486 480 256S379.514 480 256 480ZM360 208C360 163.891 324.125 128 280 128H184C170.781 128 160 138.766 160 152V376C160 380.406 163.594 384 168 384S176 380.406 176 376V288H280C281.193 288 282.305 287.701 283.484 287.648L345.344 380.438C346.955 382.871 351.654 385.809 356.438 382.656C360.125 380.219 361.094 375.25 358.656 371.562L300.873 284.889C334.834 275.641 360 244.844 360 208ZM280 272H176V152C176 147.594 179.594 144 184 144H280C315.281 144 344 172.703 344 208S315.281 272 280 272Z"/></svg>
